X:66
T: BLAUE BLAUE WOLKEN
N: K1009
O: Europa, Mitteleuropa, Deutschland, Bergisches Land
R: Kinder -, Natur -, Regen - Lied
M: 2/4
L: 1/8
K: G
 | ddde | d2B
G | ddde | d2Bz |
dddd | eee2 |
dcBc | d2Bz

@@@ Tune index: 7403
